public/assets/images/spin.svg

<svg xmlns:xlink="http://www.w3.org/1999/xlink" xmlns="http://www.w3.org/2000/svg" width="30" viewBox="0 0 30 29" fill="none" class="text-icon__icon" height="29" ><path d="M7.5705 21.6239C7.9264 21.9798 8.99411 22.3802 11.174 21.6239C11.7524 21.4459 12.3752 21.179 12.998 20.8676C12.1528 20.2003 11.3075 19.4885 10.5067 18.6877C9.70592 17.8869 8.99411 17.0416 8.3268 16.1964C8.01538 16.8192 7.74845 17.442 7.5705 18.0204C6.81421 20.2003 7.2146 21.268 7.5705 21.6239ZM6.99216 14.1944C4.81226 10.5464 4.32289 7.03187 6.05792 5.29685C7.79294 3.56182 11.3075 4.05119 15 6.23109C18.648 4.05119 22.1625 3.56182 23.8975 5.29685C25.6326 7.03187 25.1432 10.5464 22.9633 14.1944C25.1432 17.8869 25.6326 21.4014 23.8975 23.1365C22.1625 24.8715 18.648 24.3821 15 22.2022C11.3075 24.3821 7.79294 24.8715 6.05792 23.1365C4.32289 21.4014 4.81226 17.8869 6.99216 14.1944ZM8.37128 12.237C8.99411 11.3917 9.70592 10.5464 10.5067 9.74563C11.352 8.94485 12.1528 8.23305 12.998 7.56573C12.3752 7.25431 11.7524 6.98739 11.174 6.76495C8.99411 6.05314 7.9264 6.45353 7.5705 6.80944C7.2146 7.16534 6.81421 8.18856 7.5705 10.3685C7.74845 10.9913 8.01538 11.6141 8.37128 12.237ZM15 8.7669C13.9768 9.47871 12.998 10.324 12.0193 11.2582C11.085 12.237 10.2398 13.2157 9.57246 14.1944C10.2398 15.2176 11.085 16.1964 12.0193 17.1751C12.998 18.1093 13.9768 18.9546 15 19.6219C15.9787 18.9546 16.9574 18.1093 17.9362 17.1751C18.8704 16.1964 19.7157 15.2176 20.4275 14.1944C19.7157 13.2157 18.8704 12.237 17.9362 11.2582C16.9574 10.324 15.9787 9.47871 15 8.7669ZM21.6287 12.237C21.9401 11.6141 22.207 10.9913 22.385 10.413C23.1412 8.23305 22.7409 7.16534 22.385 6.80944C22.0291 6.45353 20.9613 6.05314 18.7814 6.80944C18.2031 6.98739 17.5803 7.25431 16.9574 7.56573C17.8027 8.23305 18.648 8.94485 19.4488 9.74563C20.2495 10.5464 20.9613 11.3917 21.6287 12.237ZM21.6287 16.1964C20.9613 17.0416 20.2495 17.8869 19.4488 18.6877C18.648 19.4885 17.8027 20.2003 16.9574 20.8676C17.5803 21.179 18.2031 21.4459 18.7814 21.6239C20.9613 22.3802 22.0291 21.9798 22.385 21.6239C22.7409 21.268 23.1412 20.2003 22.385 18.0204C22.207 17.442 21.9401 16.8192 21.6287 16.1964ZM13.5764 14.1944C13.5764 13.4381 14.1992 12.7708 15 12.7708C15.7563 12.7708 16.4236 13.4381 16.4236 14.1944C16.4236 14.9952 15.7563 15.618 15 15.618C14.1992 15.618 13.5764 14.9952 13.5764 14.1944Z" fill="#3D4148"></path></svg>

<svg xmlns="http://www.w3.org/2000/svg" width="30" fill="none" class="text-icon__icon" height="29"><path d="M7.57 21.624c.356.356 1.424.756 3.604 0a12.24 12.24 0 0 0 1.824-.756 28.182 28.182 0 0 1-2.491-2.18c-.801-.801-1.513-1.646-2.18-2.492a12.233 12.233 0 0 0-.756 1.824c-.757 2.18-.356 3.248 0 3.604Zm-.578-7.43c-2.18-3.648-2.67-7.162-.934-8.897C7.793 3.562 11.308 4.05 15 6.23c3.648-2.18 7.163-2.67 8.898-.934 1.735 1.735 1.245 5.25-.935 8.897 2.18 3.693 2.67 7.207.934 8.943-1.734 1.735-5.249 1.245-8.897-.935-3.693 2.18-7.207 2.67-8.942.934-1.735-1.735-1.246-5.25.934-8.942Zm1.38-1.957a21.895 21.895 0 0 1 2.135-2.491c.845-.801 1.646-1.513 2.491-2.18a20.784 20.784 0 0 0-1.824-.801c-2.18-.712-3.248-.311-3.603.044-.356.356-.757 1.38 0 3.56.177.622.444 1.245.8 1.868ZM15 8.767c-1.023.712-2.002 1.557-2.98 2.491-.935.979-1.78 1.958-2.448 2.936.668 1.024 1.513 2.002 2.447 2.981.979.934 1.958 1.78 2.981 2.447.979-.667 1.957-1.513 2.936-2.447.934-.979 1.78-1.957 2.491-2.98-.711-.98-1.557-1.958-2.49-2.937-.98-.934-1.958-1.78-2.937-2.491Zm6.629 3.47a12.25 12.25 0 0 0 .756-1.824c.756-2.18.356-3.248 0-3.604-.356-.355-1.424-.756-3.604 0-.578.178-1.2.445-1.824.757.846.667 1.691 1.379 2.492 2.18.8.8 1.512 1.646 2.18 2.491Zm0 3.96c-.668.845-1.38 1.69-2.18 2.49-.801.801-1.646 1.513-2.492 2.18a12.25 12.25 0 0 0 1.824.757c2.18.756 3.248.356 3.604 0 .356-.356.756-1.424 0-3.604a12.24 12.24 0 0 0-.756-1.824Zm-8.053-2.003c0-.756.623-1.423 1.424-1.423.756 0 1.424.667 1.424 1.423 0 .801-.668 1.424-1.424 1.424-.8 0-1.424-.623-1.424-1.424Z" fill="#3D4148"/></svg>
